X:1
T:God Defend New Zealand
M:4/4
L:1/4
Q:1/4=120
K:G
GF GD|BB/A/ G2|Ec DB      |A/G/F/E/ D2|GD EF|GA B2|BG EA|GF G2||
dd Bc|dd/e/ d2|AB c/B/A/G/|F/G/F/E/ D2|GD EF|GA B2|BG EA|GF G2|]
